def initialization():
	global program_counter = 1
	movej(get_inverse_kin(p[-0.1, 0.328571338566996, 0.286424204726653, -2.20888136126745, 0.027555748553784, -2.20888136126745], qnear=[-0.604, -1.204, -2.091, -1.417, 1.569, 0]))
end
def main():
	counter = 0
	while(counter < program_counter):
	movel(p[-0.1, 0.324572583374077, 0.286324420423745, 2.12045198687265, 0.204489191675053, 2.12045198687265], r=0.0)
	movel(p[-0.1, 0.318754233752374, 0.28745976110961, 2.14944493034231, 0.149470815646755, 2.14944493034231], r=0.0)
	movel(p[-0.1, 0.313198159015553, 0.288235272640882, 2.18123737773172, 0.085905547716575, 2.18123737773172], r=0.0)
	movel(p[-0.1, 0.30839780681192, 0.288613972869989, -1.88175939526923, 0.578059381762557, -1.88175939526923], r=0.0)
	movel(p[-0.1, 0.304461898055074, 0.285881977200159, 2.40259022962172, 1.47325458508177, 0.953942962020478], r=0.0)
	movel(p[-0.0965293310280155, 0.303232730319615, 0.287119146696278, -1.44630769393602, -0.956435516759465, -0.904648892835879], r=0.0)
	movel(p[-0.0922406745868744, 0.303688054230599, 0.28565936357289, -0.825928852120503, -1.17399164575984, -1.60673540030749], r=0.0)
	movel(p[-0.0879754428894805, 0.303235672666055, 0.287142962134541, -0.724775159964269, -1.32590017441879, -1.7503634706549], r=0.0)
	movel(p[-0.083699135150301, 0.302615826639421, 0.289611287421765, -0.773229468807643, -1.35472739496636, -1.72881207879304], r=0.0)
	movel(p[-0.0794577637509202, 0.302046259170984, 0.292001294715553, -0.41336165983827, -1.8314735836808, -2.08350152946129], r=0.0)
	movel(p[-0.0776160804344029, 0.301563483511522, 0.295835427118073, -1.00941587862408, -1.29579392877902, -1.44874308798585], r=0.0)
	movel(p[-0.0733470028461132, 0.301451560426162, 0.296814023169292, -1.09282191609825, -1.22672839366125, -1.33902068537482], r=0.0)
	movel(p[-0.0684636853568225, 0.301393952506266, 0.297386660100275, -1.1254605780335, -1.1897657189709, -1.28975651830555], r=0.0)
	movel(p[-0.0634103984353556, 0.301365187477349, 0.297672591581717, -1.14045525771097, -1.16957510932656, -1.26505804608673], r=0.0)
	movel(p[-0.0584425142678687, 0.301352334783307, 0.297800350530211, -1.15194797314163, -1.16106873987144, -1.24904079689894], r=0.0)
	movel(p[-0.05347461995006, 0.301348296717727, 0.297840489897946, -1.16001993626228, -1.1610219465134, -1.24040666094923], r=0.0)
	movel(p[-0.0484999999999999, 0.301347851631016, 0.297844914169617, -0.655309226216775, -1.75731874648144, -1.80946732231344], r=0.0)
	movel(p[-0.0454968643472507, 0.301291251030949, 0.301306740844764, -1.10948124271181, -1.36776980001136, -1.35614299633455], r=0.0)
	movel(p[-0.0410000000000001, 0.301277211632185, 0.302165423704749, -1.2234498987167, -1.2234498987167, -1.19997921394093], r=0.0)
	movel(p[-0.0359999999999999, 0.301277211632185, 0.302165423704749, -0.690629678122242, -1.82790155440097, -1.76036772582665], r=0.0)
	movel(p[-0.0329989580477375, 0.301432191936545, 0.305625454370877, -1.1673256031953, -1.43594629101147, -1.31186028153923], r=0.0)
	movel(p[-0.0285, 0.301470836138889, 0.306488209968945, -1.28792833028012, -1.28792833028013, -1.15644625014904], r=0.0)
	movel(p[-0.0235, 0.301470836138889, 0.306488209968945, -0.719216223910363, -1.93405723624246, -1.66202513536961], r=0.0)
	movel(p[-0.0205, 0.302047017129687, 0.309904057662541, -0.555622180343263, -2.14012735954992, -1.71648809782858], r=0.0)
	movel(p[-0.0179966699286562, 0.303012819336471, 0.314121259709012, -0.358575855557283, 2.33211166834297, 1.75536456808678], r=0.0)
	movel(p[-0.0195, 0.30424288018119, 0.318263653472915, -0.66700929722349, 2.21640202182907, 1.49171951604748], r=0.0)
	movel(p[-0.0223971001214334, 0.30584736731514, 0.321995458840993, -0.704130381392428, -2.30975287412785, -1.47624119986449], r=0.0)
	movel(p[-0.0201028998785666, 0.307253133444634, 0.325024809121755, -0.675240135663774, 2.36148335233166, 1.34221824456026], r=0.0)
	movel(p[-0.0223971002290696, 0.309034028460216, 0.327848583023431, -0.792119530452734, 2.3856416362673, 1.30904891284379], r=0.0)
	movel(p[-0.0248971002290696, 0.310831026484202, 0.330663532059075, -0.712338838118765, -2.46782784439381, -1.19218171672786], r=0.0)
	movel(p[-0.0226028992409517, 0.312972402835653, 0.333224740734042, -0.771976704690603, 2.53436432909857, 1.17784849051563], r=0.0)
	movel(p[-0.0248971007590483, 0.315128561759756, 0.335775056590976, -0.74724940966175, -2.5660841488912, -1.03448965743403], r=0.0)
	movel(p[-0.0226028995452378, 0.31759220691311, 0.338027995029996, -0.802074377567529, 2.63446637321341, 1.01639625898828], r=0.0)
	movel(p[-0.0248971004547621, 0.320069051700708, 0.34026816836984, -0.844284672719862, 2.61998905614312, 0.857347443101195], r=0.0)
	movel(p[-0.0273971001342167, 0.322811001487849, 0.342172635478516, -0.892824210322283, 2.68616951844113, 0.834864189074051], r=0.0)
	movel(p[-0.0298971001342167, 0.325564331718562, 0.344062692088623, -0.809796737863683, -2.73615109665301, -0.697401125959218], r=0.0)
	movel(p[-0.0276028999466353, 0.328535658936502, 0.345584697801774, -0.853917214583736, 2.80732557481324, 0.670741820439773], r=0.0)
	movel(p[-0.0298971000533647, 0.331516344170572, 0.347090904314225, -0.684042378903316, -2.8784601076927, -0.519331872764069], r=0.0)
	movel(p[-0.028, 0.334911458873944, 0.348289211076129, -0.487145668994549, 3.04129856449176, 0.444360160674025], r=0.0)
	movel(p[-0.0295033300101857, 0.339063469034041, 0.349506970615474, -0.484668216843474, -3.04904706769933, -0.333853497404593], r=0.0)
	movel(p[-0.028, 0.343284703865265, 0.35042845449223, -0.486725951741625, 3.07082080343297, 0.169930434634756], r=0.0)
	movel(p[-0.0295010419753611, 0.347586295478819, 0.350871462769672, -0.492213073252619, -3.09421705080303, -0.0546445832957049], r=0.0)
	movel(p[-0.0279968644313806, 0.351909062842243, 0.350998020049757, 0.493090081748763, -3.09801090208401, 0.0692258206300402], r=0.0)
	movel(p[-0.0295, 0.35622410151705, 0.35078130684092, 0.490580990533539, 3.08070335920403, -0.227733538958395], r=0.0)
	movel(p[-0.0279981084805599, 0.36049658778615, 0.350110865990798, 0.485757021937528, -3.05055428851075, 0.338946676564476], r=0.0)
	movel(p[-0.0295027469134364, 0.364708818639679, 0.349139021263042, 0.793316421478601, -2.94176637227404, 0.458741019328719], r=0.0)
	movel(p[-0.0320000000000007, 0.368816520107252, 0.347799260062652, 0.47921498500583, 2.9906356415786, -0.613875372917729], r=0.0)
	movel(p[-0.0304974521951209, 0.372776478800825, 0.346059650369682, 0.77838355196095, 2.84957938712563, -0.692150122862428], r=0.0)
	movel(p[-0.0279751702296825, 0.376595150295231, 0.344064260690134, 0.480950396891946, -2.89538973943808, 0.854545498926694], r=0.0)
	movel(p[-0.0295151858954504, 0.38015923011836, 0.341724206705186, 0.756540160981364, -2.73673984927336, 0.940440633336764], r=0.0)
	movel(p[-0.0320236916376391, 0.383500420724497, 0.339084702632129, 0.504614388889297, 2.78402005439954, -1.05109522373506], r=0.0)
	movel(p[-0.0303739164021224, 0.386603154230007, 0.336325972354859, 0.709677878387084, 2.57572110567714, -1.1641206011384], r=0.0)
	movel(p[-0.0278980265619268, 0.389328735332458, 0.333243484220732, 0.49688854927372, -2.65192085660817, 1.29517265346647], r=0.0)
	movel(p[-0.0295600912483548, 0.391838218211639, 0.330000173545668, 0.691823135456406, -2.48436773238254, 1.33169291826288], r=0.0)
	movel(p[-0.0320423986422737, 0.394134625518993, 0.326514463205038, 0.669265749494158, -2.40955516297806, 1.45017538843799], r=0.0)
	movel(p[-0.0345218241650466, 0.396094764685907, 0.322752729041446, 0.638867994767979, -2.34219289636831, 1.52648038857704], r=0.0)
	movel(p[-0.0370025478022997, 0.397809450222575, 0.318828056471482, 0.38587088524046, 2.38824161446239, -1.71248077733278], r=0.0)
	movel(p[-0.0355000000000008, 0.399171066660135, 0.314727372478903, 1.27815049195538, 1.57928801335047, -1.20002847092783], r=0.0)
	movel(p[-0.0310000000000006, 0.399427649014797, 0.313900229507418, 1.76592021547885, 0.665841319125646, -0.521470775958881], r=0.0)
	movel(p[-0.0279999999999993, 0.398401319596149, 0.317208801393356, 1.56532838654456, 1.26905945660303, -0.89970316160997], r=0.0)
	movel(p[-0.0234999999999994, 0.398144737241488, 0.31803594436484, 1.45808107989635, 1.45808107989622, -1.02623817204701], r=0.0)
	movel(p[-0.0185000000000006, 0.398144737241487, 0.31803594436484, 1.45888280658944, 1.45888280658972, -1.02556806452113], r=0.0)
	movel(p[-0.0134999999999995, 0.398144737241488, 0.318035944364839, 1.46021871140933, 1.4602187114092, -1.02445022657259], r=0.0)
	movel(p[-0.00849999999999967, 0.398144737241488, 0.31803594436484, 1.45809098111704, 1.45809098111677, -1.02622989972998], r=0.0)
	movel(p[-0.00350000000000144, 0.398144737241487, 0.318035944364841, 1.45873139344061, 1.45873139344085, -1.02569466324423], r=0.0)
	movel(p[0.00150000000000016, 0.398144737241488, 0.31803594436484, 1.4600719302083, 1.4600719302084, -1.02457312423466], r=0.0)
	movel(p[0.00650000000000091, 0.398144737241488, 0.31803594436484, 1.45805720319481, 1.45805720319459, -1.02625812031033], r=0.0)
	movel(p[0.0114999999999992, 0.398144737241487, 0.31803594436484, 1.45748891711276, 1.45748891711281, -1.02673275928067], r=0.0)
	movel(p[0.0164999999999996, 0.398144737241487, 0.31803594436484, 1.4597766066902, 1.45977660669029, -1.0248203369911], r=0.0)
	movel(p[0.0215000000000004, 0.398144737241488, 0.31803594436484, 1.456312062792, 1.45631206279203, -1.02771478538569], r=0.0)
	movel(p[0.0265000000000001, 0.398144737241488, 0.31803594436484, 1.4530076228009, 1.45300762280083, -1.03046572687421], r=0.0)
	movel(p[0.0314999999999998, 0.398144737241487, 0.31803594436484, 1.45261221905539, 1.45261221905541, -1.03079426394606], r=0.0)
	movel(p[0.0364999999999997, 0.398144737241487, 0.31803594436484, 1.45692874789921, 1.44946471674807, -1.02626617232278], r=0.0)
	movel(p[0.0414999128285603, 0.398136913294631, 0.318061166374594, 1.46280646795973, 1.45324114884531, -1.02106233878532], r=0.0)
	movel(p[0.0466111538581026, 0.398126645112544, 0.318094267850546, 1.84467917151193, 0.73325625456713, -0.529551629673853], r=0.0)
	movel(p[0.0498394619372773, 0.396780155044244, 0.321257224595689, 1.69263776517405, 1.24140185450722, -0.791268496334211], r=0.0)
	movel(p[0.0543632437244865, 0.396232567931262, 0.322506281651901, 1.47249186926638, 1.6122171552143, -1.01545166637792], r=0.0)
	movel(p[0.0599727587702937, 0.396449476330473, 0.322038855538217, 1.70297190994686, 1.22546313296454, -0.781848548470983], r=0.0)
	movel(p[0.0647640110885498, 0.395764194050987, 0.323515602560655, 1.81114322032122, 1.07148320374848, -0.668125409146152], r=0.0)
	movel(p[0.068799005749931, 0.394756784524333, 0.325468993829415, 1.32303051272228, 1.86537761222314, -1.12225215304134], r=0.0)
	movel(p[0.0730458723366343, 0.395492991905863, 0.324046457945836, 1.73109087414958, 1.26273347608207, -0.770225368414882], r=0.0)
	movel(p[0.0773756961381829, 0.394814928256309, 0.325359953112696, 1.3592250984283, 1.83919493991139, -1.099250594735], r=0.0)
	movel(p[0.0817578222742282, 0.395491107245426, 0.324053019751085, 1.16883725688329, 1.99690870503716, -1.23712866203234], r=0.0)
	movel(p[0.0860969167539107, 0.396560090894741, 0.321800487009932, 1.68537577953603, 1.21418316610964, -0.813453919055111], r=0.0)
	movel(p[0.0904361850625028, 0.395930084232529, 0.323158118004322, 1.8178731224508, 1.04719149671089, -0.653162448578587], r=0.0)
	movel(p[0.094792280345443, 0.394794212618254, 0.325397584179153, 2.37425377917678, 1.30176428926036, -1.17180669316516], r=0.0)
	movel(p[0.0984256959379155, 0.392054482452727, 0.32440264728321, -1.96546451724697, -1.03134794682691, 1.57399163965318], r=0.0)
	movel(p[0.1, 0.388290169188484, 0.320333716477233, -2.08516536941818, -0.268057809595539, 2.08516536941818], r=0.0)
	movel(p[0.1, 0.383802041401932, 0.319206675526488, -1.66217454873981, -0.836040999340285, 1.66217454873981], r=0.0)
	movel(p[0.1, 0.381128778089656, 0.315461295365196, -2.07301168739409, -0.289159207777043, 2.07301168739409], r=0.0)
	movel(p[0.1, 0.376537027092304, 0.314289254073267, 2.21005116704832, -0.0250180132490218, -2.21005116704831], r=0.0)
	movel(p[0.1, 0.370376900198824, 0.314428738290504, -1.95630445931414, -0.474085443347485, 1.95630445931414], r=0.0)
	movel(p[0.1, 0.366207437830183, 0.31226451275643, -2.02432987487152, -0.369980398903351, 2.02432987487152], r=0.0)
	movel(p[0.1, 0.361398220804017, 0.310447711896229, -1.94472728430073, -0.490884322519831, 1.94472728430073], r=0.0)
	movel(p[0.1, 0.356213086465786, 0.307649823561597, -1.88563348763967, -0.572890350557866, 1.88563348763967], r=0.0)
	counter = counter + 1
	end
end
