def initialization():
  global program_counter = 1
  movej(get_inverse_kin(p[-0.3, 0.34, 0.42, 0.0, 3.14159265358979, 0.0], qnear = [-0.604, -1.204, -2.091, -1.417, 1.569, 0]))
end
def main():
  counter = 0
  while (counter < program_counter):
    movel(p[-0.3, 0.34, 0.428, 0.0, 3.14159265358979, 0.0], r = 0.05)
    movel(p[-0.3, 0.34, 0.436, 0.0, 3.14159265358979, 0.0], r = 0.05)
    movel(p[-0.3, 0.34, 0.444, 0.0, 3.14159265358979, 0.0], r = 0.05)
    movel(p[-0.3, 0.34, 0.452, 0.0, 3.14159265358979, 0.0], r = 0.05)
    movel(p[-0.3, 0.34, 0.46, 0.0, 3.14159265358979, 0.0], r = 0.05)
    movel(p[-0.3, 0.34, 0.468, 0.0, 3.14159265358979, 0.0], r = 0.05)
    movel(p[-0.3, 0.34, 0.476, 0.0, 3.14159265358979, 0.0], r = 0.05)
    movel(p[-0.3, 0.34, 0.472, 0.0, 3.14159265358979, 0.0], r = 0.05)
    movel(p[-0.3, 0.34, 0.464, 0.0, 3.14159265358979, 0.0], r = 0.05)
    movel(p[-0.3, 0.34, 0.456, 0.0, 3.14159265358979, 0.0], r = 0.05)
    movel(p[-0.292, 0.34, 0.45, 0.0, 3.14159265358979, 0.0], r = 0.05)
    movel(p[-0.284, 0.34, 0.45, 0.0, 3.14159265358979, 0.0], r = 0.05)
    movel(p[-0.276, 0.34, 0.45, 0.0, 3.14159265358979, 0.0], r = 0.05)
    movel(p[-0.268, 0.34, 0.45, 0.0, 3.14159265358979, 0.0], r = 0.05)
    movel(p[-0.26, 0.34, 0.45, 0.0, 3.14159265358979, 0.0], r = 0.05)
    movel(p[-0.252, 0.34, 0.45, 0.0, 3.14159265358979, 0.0], r = 0.05)
    movel(p[-0.244, 0.34, 0.45, 0.0, 3.14159265358979, 0.0], r = 0.05)
    movel(p[-0.236, 0.34, 0.45, 0.0, 3.14159265358979, 0.0], r = 0.05)
    movel(p[-0.228, 0.34, 0.45, 0.0, 3.14159265358979, 0.0], r = 0.05)
    movel(p[-0.22, 0.34, 0.45, 0.0, 3.14159265358979, 0.0], r = 0.05)
    movel(p[-0.212, 0.34, 0.45, 0.0, 3.14159265358979, 0.0], r = 0.05)
    movel(p[-0.204, 0.34, 0.45, 0.0, 3.14159265358979, 0.0], r = 0.05)
    movel(p[-0.2, 0.34, 0.442, 0.0, 3.14159265358979, 0.0], r = 0.05)
    movel(p[-0.2, 0.34, 0.434, 0.0, 3.14159265358979, 0.0], r = 0.05)
    movel(p[-0.2, 0.34, 0.426, 0.0, 3.14159265358979, 0.0], r = 0.05)
    movel(p[-0.2, 0.34, 0.428, 0.0, 3.14159265358979, 0.0], r = 0.05)
    movel(p[-0.2, 0.34, 0.436, 0.0, 3.14159265358979, 0.0], r = 0.05)
    movel(p[-0.2, 0.34, 0.444, 0.0, 3.14159265358979, 0.0], r = 0.05)
    movel(p[-0.2, 0.34, 0.452, 0.0, 3.14159265358979, 0.0], r = 0.05)
    movel(p[-0.2, 0.34, 0.46, 0.0, 3.14159265358979, 0.0], r = 0.05)
    movel(p[-0.2, 0.34, 0.468, 0.0, 3.14159265358979, 0.0], r = 0.05)
    movel(p[-0.2, 0.34, 0.476, 0.0, 3.14159265358979, 0.0], r = 0.05)
    movel(p[-0.192, 0.34, 0.48, 0.0, 3.14159265358979, 0.0], r = 0.05)
    movel(p[-0.184, 0.34, 0.48, 0.0, 3.14159265358979, 0.0], r = 0.05)
    movel(p[-0.176, 0.34, 0.48, 0.0, 3.14159265358979, 0.0], r = 0.05)
    movel(p[-0.168, 0.34, 0.48, 0.0, 3.14159265358979, 0.0], r = 0.05)
    movel(p[-0.16, 0.34, 0.48, 0.0, 3.14159265358979, 0.0], r = 0.05)
    movel(p[-0.152, 0.34, 0.48, 0.0, 3.14159265358979, 0.0], r = 0.05)
    movel(p[-0.142, 0.34, 0.48, 0.0, 3.14159265358979, 0.0], r = 0.05)
    movel(p[-0.134, 0.34, 0.48, 0.0, 3.14159265358979, 0.0], r = 0.05)
    movel(p[-0.126, 0.34, 0.48, 0.0, 3.14159265358979, 0.0], r = 0.05)
    movel(p[-0.118, 0.34, 0.48, 0.0, 3.14159265358979, 0.0], r = 0.05)
    movel(p[-0.11, 0.34, 0.48, 0.0, 3.14159265358979, 0.0], r = 0.05)
    movel(p[-0.102, 0.34, 0.48, 0.0, 3.14159265358979, 0.0], r = 0.05)
    movel(p[-0.094, 0.34, 0.48, 0.0, 3.14159265358979, 0.0], r = 0.05)
    movel(p[-0.086, 0.34, 0.48, 0.0, 3.14159265358979, 0.0], r = 0.05)
    movel(p[-0.078, 0.34, 0.48, 0.0, 3.14159265358979, 0.0], r = 0.05)
    movel(p[-0.07, 0.34, 0.48, 0.0, 3.14159265358979, 0.0], r = 0.05)
    movel(p[-0.062, 0.34, 0.48, 0.0, 3.14159265358979, 0.0], r = 0.05)
    movel(p[-0.054, 0.34, 0.48, 0.0, 3.14159265358979, 0.0], r = 0.05)
    movel(p[-0.05, 0.34, 0.472, 0.0, 3.14159265358979, 0.0], r = 0.05)
    movel(p[-0.05, 0.34, 0.464, 0.0, 3.14159265358979, 0.0], r = 0.05)
    movel(p[-0.05, 0.34, 0.456, 0.0, 3.14159265358979, 0.0], r = 0.05)
    movel(p[-0.05, 0.34, 0.448, 0.0, 3.14159265358979, 0.0], r = 0.05)
    movel(p[-0.05, 0.34, 0.44, 0.0, 3.14159265358979, 0.0], r = 0.05)
    movel(p[-0.05, 0.34, 0.432, 0.0, 3.14159265358979, 0.0], r = 0.05)
    movel(p[-0.05, 0.34, 0.424, 0.0, 3.14159265358979, 0.0], r = 0.05)
    movel(p[-0.058, 0.34, 0.42, 0.0, 3.14159265358979, 0.0], r = 0.05)
    movel(p[-0.066, 0.34, 0.42, 0.0, 3.14159265358979, 0.0], r = 0.05)
    movel(p[-0.074, 0.34, 0.42, 0.0, 3.14159265358979, 0.0], r = 0.05)
    movel(p[-0.082, 0.34, 0.42, 0.0, 3.14159265358979, 0.0], r = 0.05)
    movel(p[-0.09, 0.34, 0.42, 0.0, 3.14159265358979, 0.0], r = 0.05)
    movel(p[-0.0980000000000001, 0.34, 0.42, 0.0, 3.14159265358979, 0.0], r = 0.05)
    movel(p[-0.106, 0.34, 0.42, 0.0, 3.14159265358979, 0.0], r = 0.05)
    movel(p[-0.114, 0.34, 0.42, 0.0, 3.14159265358979, 0.0], r = 0.05)
    movel(p[-0.122, 0.34, 0.42, 0.0, 3.14159265358979, 0.0], r = 0.05)
    movel(p[-0.13, 0.34, 0.42, 0.0, 3.14159265358979, 0.0], r = 0.05)
    movel(p[-0.138, 0.34, 0.42, 0.0, 3.14159265358979, 0.0], r = 0.05)
    movel(p[-0.146, 0.34, 0.42, 0.0, 3.14159265358979, 0.0], r = 0.05)
    movel(p[-0.15, 0.34, 0.428, 0.0, 3.14159265358979, 0.0], r = 0.05)
    movel(p[-0.15, 0.34, 0.436, 0.0, 3.14159265358979, 0.0], r = 0.05)
    movel(p[-0.15, 0.34, 0.444, 0.0, 3.14159265358979, 0.0], r = 0.05)
    movel(p[-0.15, 0.34, 0.452, 0.0, 3.14159265358979, 0.0], r = 0.05)
    movel(p[-0.15, 0.34, 0.46, 0.0, 3.14159265358979, 0.0], r = 0.05)
    movel(p[-0.15, 0.34, 0.468, 0.0, 3.14159265358979, 0.0], r = 0.05)
    movel(p[-0.15, 0.34, 0.476, 0.0, 3.14159265358979, 0.0], r = 0.05)
    movel(p[-0.140476190476191, 0.34, 0.48, 0.0, 3.14159265358979, 0.0], r = 0.05)
    movel(p[-0.130952380952381, 0.34, 0.48, 0.0, 3.14159265358979, 0.0], r = 0.05)
    movel(p[-0.121428571428571, 0.34, 0.48, 0.0, 3.14159265358979, 0.0], r = 0.05)
    movel(p[-0.111904761904762, 0.34, 0.48, 0.0, 3.14159265358979, 0.0], r = 0.05)
    movel(p[-0.102380952380952, 0.34, 0.48, 0.0, 3.14159265358979, 0.0], r = 0.05)
    movel(p[-0.0928571428571428, 0.34, 0.48, 0.0, 3.14159265358979, 0.0], r = 0.05)
    movel(p[-0.0833333333333333, 0.34, 0.48, 0.0, 3.14159265358979, 0.0], r = 0.05)
    movel(p[-0.0738095238095238, 0.34, 0.48, 0.0, 3.14159265358979, 0.0], r = 0.05)
    movel(p[-0.0642857142857143, 0.34, 0.48, 0.0, 3.14159265358979, 0.0], r = 0.05)
    movel(p[-0.0547619047619047, 0.34, 0.48, 0.0, 3.14159265358979, 0.0], r = 0.05)
    movel(p[-0.0452380952380952, 0.34, 0.48, 0.0, 3.14159265358979, 0.0], r = 0.05)
    movel(p[-0.0357142857142856, 0.34, 0.48, 0.0, 3.14159265358979, 0.0], r = 0.05)
    movel(p[-0.0261904761904762, 0.34, 0.48, 0.0, 3.14159265358979, 0.0], r = 0.05)
    movel(p[-0.0166666666666667, 0.34, 0.48, 0.0, 3.14159265358979, 0.0], r = 0.05)
    movel(p[-0.00714285714285717, 0.34, 0.48, 0.0, 3.14159265358979, 0.0], r = 0.05)
    movel(p[0.00238095238095243, 0.34, 0.48, 0.0, 3.14159265358979, 0.0], r = 0.05)
    movel(p[0.0119047619047619, 0.34, 0.48, 0.0, 3.14159265358979, 0.0], r = 0.05)
    movel(p[0.0214285714285714, 0.34, 0.48, 0.0, 3.14159265358979, 0.0], r = 0.05)
    movel(p[0.0309523809523809, 0.34, 0.48, 0.0, 3.14159265358979, 0.0], r = 0.05)
    movel(p[0.0404761904761905, 0.34, 0.48, 0.0, 3.14159265358979, 0.0], r = 0.05)
    movel(p[0.05, 0.34, 0.48, 0.0, 3.14159265358979, 0.0], r = 0.05)
    movel(p[0.05, 0.34, 0.472, 0.0, 3.14159265358979, 0.0], r = 0.05)
    movel(p[0.05, 0.34, 0.464, 0.0, 3.14159265358979, 0.0], r = 0.05)
    movel(p[0.05, 0.34, 0.456, 0.0, 3.14159265358979, 0.0], r = 0.05)
    movel(p[0.05, 0.34, 0.448, 0.0, 3.14159265358979, 0.0], r = 0.05)
    movel(p[0.05, 0.34, 0.44, 0.0, 3.14159265358979, 0.0], r = 0.05)
    movel(p[0.05, 0.34, 0.432, 0.0, 3.14159265358979, 0.0], r = 0.05)
    movel(p[0.05, 0.34, 0.424, 0.0, 3.14159265358979, 0.0], r = 0.05)
    movel(p[0.058, 0.34, 0.42, 0.0, 3.14159265358979, 0.0], r = 0.05)
    movel(p[0.066, 0.34, 0.42, 0.0, 3.14159265358979, 0.0], r = 0.05)
    movel(p[0.074, 0.34, 0.42, 0.0, 3.14159265358979, 0.0], r = 0.05)
    movel(p[0.082, 0.34, 0.42, 0.0, 3.14159265358979, 0.0], r = 0.05)
    movel(p[0.09, 0.34, 0.42, 0.0, 3.14159265358979, 0.0], r = 0.05)
    movel(p[0.098, 0.34, 0.42, 0.0, 3.14159265358979, 0.0], r = 0.05)
    movel(p[0.106, 0.34, 0.42, 0.0, 3.14159265358979, 0.0], r = 0.05)
    movel(p[0.114, 0.34, 0.42, 0.0, 3.14159265358979, 0.0], r = 0.05)
    movel(p[0.122, 0.34, 0.42, 0.0, 3.14159265358979, 0.0], r = 0.05)
    movel(p[0.13, 0.34, 0.42, 0.0, 3.14159265358979, 0.0], r = 0.05)
    movel(p[0.138, 0.34, 0.42, 0.0, 3.14159265358979, 0.0], r = 0.05)
    movel(p[0.146, 0.34, 0.42, 0.0, 3.14159265358979, 0.0], r = 0.05)
    movel(p[0.154, 0.34, 0.42, 0.0, 3.14159265358979, 0.0], r = 0.05)
    movel(p[0.162, 0.34, 0.42, 0.0, 3.14159265358979, 0.0], r = 0.05)
    movel(p[0.17, 0.34, 0.42, 0.0, 3.14159265358979, 0.0], r = 0.05)
    movel(p[0.178, 0.34, 0.42, 0.0, 3.14159265358979, 0.0], r = 0.05)
    movel(p[0.186, 0.34, 0.42, 0.0, 3.14159265358979, 0.0], r = 0.05)
    movel(p[0.194, 0.34, 0.42, 0.0, 3.14159265358979, 0.0], r = 0.05)
    movel(p[0.205121475197316, 0.34, 0.426145770236779, 0.0, 3.14159265358979, 0.0], r = 0.05)
    movel(p[0.210242950394632, 0.34, 0.432291540473558, 0.0, 3.14159265358979, 0.0], r = 0.05)
    movel(p[0.215364425591948, 0.34, 0.438437310710337, 0.0, 3.14159265358979, 0.0], r = 0.05)
    movel(p[0.220485900789263, 0.34, 0.444583080947116, 0.0, 3.14159265358979, 0.0], r = 0.05)
    movel(p[0.225607375986579, 0.34, 0.450728851183895, 0.0, 3.14159265358979, 0.0], r = 0.05)
    movel(p[0.230728851183895, 0.34, 0.456874621420674, 0.0, 3.14159265358979, 0.0], r = 0.05)
    movel(p[0.235850326381211, 0.34, 0.463020391657453, 0.0, 3.14159265358979, 0.0], r = 0.05)
    movel(p[0.240971801578527, 0.34, 0.469166161894232, 0.0, 3.14159265358979, 0.0], r = 0.05)
    movel(p[0.246093276775843, 0.34, 0.475311932131011, 0.0, 3.14159265358979, 0.0], r = 0.05)
    movel(p[0.255121475197316, 0.34, 0.473854229763221, 0.0, 3.14159265358979, 0.0], r = 0.05)
    movel(p[0.260242950394632, 0.34, 0.467708459526442, 0.0, 3.14159265358979, 0.0], r = 0.05)
    movel(p[0.265364425591948, 0.34, 0.461562689289663, 0.0, 3.14159265358979, 0.0], r = 0.05)
    movel(p[0.270485900789263, 0.34, 0.455416919052884, 0.0, 3.14159265358979, 0.0], r = 0.05)
    movel(p[0.275607375986579, 0.34, 0.449271148816105, 0.0, 3.14159265358979, 0.0], r = 0.05)
    movel(p[0.280728851183895, 0.34, 0.443125378579326, 0.0, 3.14159265358979, 0.0], r = 0.05)
    movel(p[0.285850326381211, 0.34, 0.436979608342547, 0.0, 3.14159265358979, 0.0], r = 0.05)
    movel(p[0.290971801578527, 0.34, 0.430833838105768, 0.0, 3.14159265358979, 0.0], r = 0.05)
    movel(p[0.296093276775843, 0.34, 0.424688067868989, 0.0, 3.14159265358979, 0.0], r = 0.05)
    movel(p[0.294878524802684, 0.34, 0.413854229763221, 0.0, 3.14159265358979, 0.0], r = 0.05)
    movel(p[0.289757049605368, 0.34, 0.407708459526442, 0.0, 3.14159265358979, 0.0], r = 0.05)
    movel(p[0.284635574408052, 0.34, 0.401562689289663, 0.0, 3.14159265358979, 0.0], r = 0.05)
    movel(p[0.279514099210737, 0.34, 0.395416919052884, 0.0, 3.14159265358979, 0.0], r = 0.05)
    movel(p[0.274392624013421, 0.34, 0.389271148816105, 0.0, 3.14159265358979, 0.0], r = 0.05)
    movel(p[0.269271148816105, 0.34, 0.383125378579326, 0.0, 3.14159265358979, 0.0], r = 0.05)
    movel(p[0.264149673618789, 0.34, 0.376979608342547, 0.0, 3.14159265358979, 0.0], r = 0.05)
    movel(p[0.259028198421473, 0.34, 0.370833838105768, 0.0, 3.14159265358979, 0.0], r = 0.05)
    movel(p[0.253906723224157, 0.34, 0.364688067868989, 0.0, 3.14159265358979, 0.0], r = 0.05)
    movel(p[0.258, 0.34, 0.36, 0.0, 3.14159265358979, 0.0], r = 0.05)
    movel(p[0.266, 0.34, 0.36, 0.0, 3.14159265358979, 0.0], r = 0.05)
    movel(p[0.274, 0.34, 0.36, 0.0, 3.14159265358979, 0.0], r = 0.05)
    movel(p[0.282, 0.34, 0.36, 0.0, 3.14159265358979, 0.0], r = 0.05)
    movel(p[0.29, 0.34, 0.36, 0.0, 3.14159265358979, 0.0], r = 0.05)
    movel(p[0.298, 0.34, 0.36, 0.0, 3.14159265358979, 0.0], r = 0.05)
    movel(p[0.306, 0.34, 0.36, 0.0, 3.14159265358979, 0.0], r = 0.05)
    movel(p[0.314, 0.34, 0.36, 0.0, 3.14159265358979, 0.0], r = 0.05)
    movel(p[0.322, 0.34, 0.36, 0.0, 3.14159265358979, 0.0], r = 0.05)
    movel(p[0.33, 0.34, 0.36, 0.0, 3.14159265358979, 0.0], r = 0.05)
    movel(p[0.338, 0.34, 0.36, 0.0, 3.14159265358979, 0.0], r = 0.05)
    movel(p[0.346, 0.34, 0.36, 0.0, 3.14159265358979, 0.0], r = 0.05)
    movel(p[0.35, 0.34, 0.352, 0.0, 3.14159265358979, 0.0], r = 0.05)
    movel(p[0.35, 0.34, 0.344, 0.0, 3.14159265358979, 0.0], r = 0.05)
    movel(p[0.35, 0.34, 0.336, 0.0, 3.14159265358979, 0.0], r = 0.05)
    movel(p[0.35, 0.34, 0.328, 0.0, 3.14159265358979, 0.0], r = 0.05)
    movel(p[0.35, 0.34, 0.32, 0.0, 3.14159265358979, 0.0], r = 0.05)
    movel(p[0.35, 0.34, 0.312, 0.0, 3.14159265358979, 0.0], r = 0.05)
    movel(p[0.35, 0.34, 0.304, 0.0, 3.14159265358979, 0.0], r = 0.05)
    movel(p[0.342, 0.34, 0.3, 0.0, 3.14159265358979, 0.0], r = 0.05)
    movel(p[0.334, 0.34, 0.3, 0.0, 3.14159265358979, 0.0], r = 0.05)
    movel(p[0.326, 0.34, 0.3, 0.0, 3.14159265358979, 0.0], r = 0.05)
    movel(p[0.318, 0.34, 0.3, 0.0, 3.14159265358979, 0.0], r = 0.05)
    movel(p[0.31, 0.34, 0.3, 0.0, 3.14159265358979, 0.0], r = 0.05)
    movel(p[0.302, 0.34, 0.3, 0.0, 3.14159265358979, 0.0], r = 0.05)
    movel(p[0.294, 0.34, 0.3, 0.0, 3.14159265358979, 0.0], r = 0.05)
    movel(p[0.286, 0.34, 0.3, 0.0, 3.14159265358979, 0.0], r = 0.05)
    movel(p[0.278, 0.34, 0.3, 0.0, 3.14159265358979, 0.0], r = 0.05)
    movel(p[0.27, 0.34, 0.3, 0.0, 3.14159265358979, 0.0], r = 0.05)
    movel(p[0.262, 0.34, 0.3, 0.0, 3.14159265358979, 0.0], r = 0.05)
    movel(p[0.254, 0.34, 0.3, 0.0, 3.14159265358979, 0.0], r = 0.05)
    movel(p[0.25, 0.34, 0.308, 0.0, 3.14159265358979, 0.0], r = 0.05)
    movel(p[0.25, 0.34, 0.316, 0.0, 3.14159265358979, 0.0], r = 0.05)
    movel(p[0.25, 0.34, 0.324, 0.0, 3.14159265358979, 0.0], r = 0.05)
    movel(p[0.25, 0.34, 0.332, 0.0, 3.14159265358979, 0.0], r = 0.05)
    movel(p[0.25, 0.34, 0.34, 0.0, 3.14159265358979, 0.0], r = 0.05)
    movel(p[0.25, 0.34, 0.348, 0.0, 3.14159265358979, 0.0], r = 0.05)
    movel(p[0.25, 0.34, 0.356, 0.0, 3.14159265358979, 0.0], r = 0.05)
    movel(p[0.2431400565943, 0.34, 0.35588403395658, 0.0, 3.14159265358979, 0.0], r = 0.05)
    movel(p[0.236280113188599, 0.34, 0.35176806791316, 0.0, 3.14159265358979, 0.0], r = 0.05)
    movel(p[0.229420169782899, 0.34, 0.347652101869739, 0.0, 3.14159265358979, 0.0], r = 0.05)
    movel(p[0.222560226377199, 0.34, 0.343536135826319, 0.0, 3.14159265358979, 0.0], r = 0.05)
    movel(p[0.215700282971498, 0.34, 0.339420169782899, 0.0, 3.14159265358979, 0.0], r = 0.05)
    movel(p[0.208840339565798, 0.34, 0.335304203739479, 0.0, 3.14159265358979, 0.0], r = 0.05)
    movel(p[0.201980396160098, 0.34, 0.331188237696058, 0.0, 3.14159265358979, 0.0], r = 0.05)
    movel(p[0.192337389718231, 0.34, 0.327701216915469, 0.0, 3.14159265358979, 0.0], r = 0.05)
    movel(p[0.184674779436462, 0.34, 0.325402433830938, 0.0, 3.14159265358979, 0.0], r = 0.05)
    movel(p[0.177012169154692, 0.34, 0.323103650746408, 0.0, 3.14159265358979, 0.0], r = 0.05)
    movel(p[0.169349558872923, 0.34, 0.320804867661877, 0.0, 3.14159265358979, 0.0], r = 0.05)
    movel(p[0.161686948591154, 0.34, 0.318506084577346, 0.0, 3.14159265358979, 0.0], r = 0.05)
    movel(p[0.154024338309385, 0.34, 0.316207301492815, 0.0, 3.14159265358979, 0.0], r = 0.05)
    movel(p[0.146361728027615, 0.34, 0.313908518408285, 0.0, 3.14159265358979, 0.0], r = 0.05)
    movel(p[0.138699117745846, 0.34, 0.311609735323754, 0.0, 3.14159265358979, 0.0], r = 0.05)
    movel(p[0.131036507464077, 0.34, 0.309310952239223, 0.0, 3.14159265358979, 0.0], r = 0.05)
    movel(p[0.123373897182308, 0.34, 0.307012169154692, 0.0, 3.14159265358979, 0.0], r = 0.05)
    movel(p[0.115711286900539, 0.34, 0.304713386070162, 0.0, 3.14159265358979, 0.0], r = 0.05)
    movel(p[0.108048676618769, 0.34, 0.302414602985631, 0.0, 3.14159265358979, 0.0], r = 0.05)
    movel(p[0.100386066337, 0.34, 0.3001158199011, 0.0, 3.14159265358979, 0.0], r = 0.05)
    movel(p[0.1, 0.34, 0.308, 0.0, 3.14159265358979, 0.0], r = 0.05)
    movel(p[0.1, 0.34, 0.316, 0.0, 3.14159265358979, 0.0], r = 0.05)
    movel(p[0.1, 0.34, 0.324, 0.0, 3.14159265358979, 0.0], r = 0.05)
    movel(p[0.1, 0.34, 0.332, 0.0, 3.14159265358979, 0.0], r = 0.05)
    movel(p[0.1, 0.34, 0.34, 0.0, 3.14159265358979, 0.0], r = 0.05)
    movel(p[0.1, 0.34, 0.348, 0.0, 3.14159265358979, 0.0], r = 0.05)
    movel(p[0.1, 0.34, 0.356, 0.0, 3.14159265358979, 0.0], r = 0.05)
    movel(p[0.107662610281769, 0.34, 0.357701216915469, 0.0, 3.14159265358979, 0.0], r = 0.05)
    movel(p[0.115325220563538, 0.34, 0.355402433830938, 0.0, 3.14159265358979, 0.0], r = 0.05)
    movel(p[0.122987830845308, 0.34, 0.353103650746408, 0.0, 3.14159265358979, 0.0], r = 0.05)
    movel(p[0.130650441127077, 0.34, 0.350804867661877, 0.0, 3.14159265358979, 0.0], r = 0.05)
    movel(p[0.138313051408846, 0.34, 0.348506084577346, 0.0, 3.14159265358979, 0.0], r = 0.05)
    movel(p[0.145975661690615, 0.34, 0.346207301492815, 0.0, 3.14159265358979, 0.0], r = 0.05)
    movel(p[0.153638271972385, 0.34, 0.343908518408285, 0.0, 3.14159265358979, 0.0], r = 0.05)
    movel(p[0.161300882254154, 0.34, 0.341609735323754, 0.0, 3.14159265358979, 0.0], r = 0.05)
    movel(p[0.168963492535923, 0.34, 0.339310952239223, 0.0, 3.14159265358979, 0.0], r = 0.05)
    movel(p[0.176626102817692, 0.34, 0.337012169154692, 0.0, 3.14159265358979, 0.0], r = 0.05)
    movel(p[0.184288713099461, 0.34, 0.334713386070162, 0.0, 3.14159265358979, 0.0], r = 0.05)
    movel(p[0.191951323381231, 0.34, 0.332414602985631, 0.0, 3.14159265358979, 0.0], r = 0.05)
    movel(p[0.199613933663, 0.34, 0.3301158199011, 0.0, 3.14159265358979, 0.0], r = 0.05)
    movel(p[0.192337389718231, 0.34, 0.332298783084531, 0.0, 3.14159265358979, 0.0], r = 0.05)
    movel(p[0.184674779436462, 0.34, 0.334597566169061, 0.0, 3.14159265358979, 0.0], r = 0.05)
    movel(p[0.177012169154692, 0.34, 0.336896349253592, 0.0, 3.14159265358979, 0.0], r = 0.05)
    movel(p[0.169349558872923, 0.34, 0.339195132338123, 0.0, 3.14159265358979, 0.0], r = 0.05)
    movel(p[0.161686948591154, 0.34, 0.341493915422654, 0.0, 3.14159265358979, 0.0], r = 0.05)
    movel(p[0.154024338309385, 0.34, 0.343792698507185, 0.0, 3.14159265358979, 0.0], r = 0.05)
    movel(p[0.146361728027616, 0.34, 0.346091481591715, 0.0, 3.14159265358979, 0.0], r = 0.05)
    movel(p[0.138699117745846, 0.34, 0.348390264676246, 0.0, 3.14159265358979, 0.0], r = 0.05)
    movel(p[0.131036507464077, 0.34, 0.350689047760777, 0.0, 3.14159265358979, 0.0], r = 0.05)
    movel(p[0.123373897182308, 0.34, 0.352987830845308, 0.0, 3.14159265358979, 0.0], r = 0.05)
    movel(p[0.115711286900539, 0.34, 0.355286613929838, 0.0, 3.14159265358979, 0.0], r = 0.05)
    movel(p[0.10804867661877, 0.34, 0.357585397014369, 0.0, 3.14159265358979, 0.0], r = 0.05)
    movel(p[0.100386066337, 0.34, 0.3598841800989, 0.0, 3.14159265358979, 0.0], r = 0.05)
    movel(p[0.092, 0.34, 0.36, 0.0, 3.14159265358979, 0.0], r = 0.05)
    movel(p[0.0839999999999999, 0.34, 0.36, 0.0, 3.14159265358979, 0.0], r = 0.05)
    movel(p[0.0759999999999999, 0.34, 0.36, 0.0, 3.14159265358979, 0.0], r = 0.05)
    movel(p[0.0679999999999999, 0.34, 0.36, 0.0, 3.14159265358979, 0.0], r = 0.05)
    movel(p[0.0599999999999998, 0.34, 0.36, 0.0, 3.14159265358979, 0.0], r = 0.05)
    movel(p[0.0519999999999998, 0.34, 0.36, 0.0, 3.14159265358979, 0.0], r = 0.05)
    movel(p[0.05, 0.34, 0.352, 0.0, 3.14159265358979, 0.0], r = 0.05)
    movel(p[0.05, 0.34, 0.344, 0.0, 3.14159265358979, 0.0], r = 0.05)
    movel(p[0.05, 0.34, 0.336, 0.0, 3.14159265358979, 0.0], r = 0.05)
    movel(p[0.05, 0.34, 0.328, 0.0, 3.14159265358979, 0.0], r = 0.05)
    movel(p[0.05, 0.34, 0.32, 0.0, 3.14159265358979, 0.0], r = 0.05)
    movel(p[0.05, 0.34, 0.312, 0.0, 3.14159265358979, 0.0], r = 0.05)
    movel(p[0.05, 0.34, 0.304, 0.0, 3.14159265358979, 0.0], r = 0.05)
    movel(p[0.0431400565942996, 0.34, 0.30411596604342, 0.0, 3.14159265358979, 0.0], r = 0.05)
    movel(p[0.0362801131885993, 0.34, 0.30823193208684, 0.0, 3.14159265358979, 0.0], r = 0.05)
    movel(p[0.0294201697828989, 0.34, 0.312347898130261, 0.0, 3.14159265358979, 0.0], r = 0.05)
    movel(p[0.0225602263771986, 0.34, 0.316463864173681, 0.0, 3.14159265358979, 0.0], r = 0.05)
    movel(p[0.0157002829714982, 0.34, 0.320579830217101, 0.0, 3.14159265358979, 0.0], r = 0.05)
    movel(p[0.00884033956579787, 0.34, 0.324695796260521, 0.0, 3.14159265358979, 0.0], r = 0.05)
    movel(p[0.00198039616009751, 0.34, 0.328811762303941, 0.0, 3.14159265358979, 0.0], r = 0.05)
    movel(p[-0.00487954724560284, 0.34, 0.332927728347362, 0.0, 3.14159265358979, 0.0], r = 0.05)
    movel(p[-0.0117394906513032, 0.34, 0.337043694390782, 0.0, 3.14159265358979, 0.0], r = 0.05)
    movel(p[-0.0185994340570036, 0.34, 0.341159660434202, 0.0, 3.14159265358979, 0.0], r = 0.05)
    movel(p[-0.0254593774627039, 0.34, 0.345275626477622, 0.0, 3.14159265358979, 0.0], r = 0.05)
    movel(p[-0.0323193208684043, 0.34, 0.349391592521043, 0.0, 3.14159265358979, 0.0], r = 0.05)
    movel(p[-0.0391792642741046, 0.34, 0.353507558564463, 0.0, 3.14159265358979, 0.0], r = 0.05)
    movel(p[-0.046039207679805, 0.34, 0.357623524607883, 0.0, 3.14159265358979, 0.0], r = 0.05)
    movel(p[-0.05, 0.34, 0.352, 0.0, 3.14159265358979, 0.0], r = 0.05)
    movel(p[-0.05, 0.34, 0.344, 0.0, 3.14159265358979, 0.0], r = 0.05)
    movel(p[-0.05, 0.34, 0.336, 0.0, 3.14159265358979, 0.0], r = 0.05)
    movel(p[-0.05, 0.34, 0.328, 0.0, 3.14159265358979, 0.0], r = 0.05)
    movel(p[-0.05, 0.34, 0.32, 0.0, 3.14159265358979, 0.0], r = 0.05)
    movel(p[-0.05, 0.34, 0.312, 0.0, 3.14159265358979, 0.0], r = 0.05)
    movel(p[-0.05, 0.34, 0.304, 0.0, 3.14159265358979, 0.0], r = 0.05)
    movel(p[-0.0551214751973158, 0.34, 0.306145770236779, 0.0, 3.14159265358979, 0.0], r = 0.05)
    movel(p[-0.0602429503946317, 0.34, 0.312291540473558, 0.0, 3.14159265358979, 0.0], r = 0.05)
    movel(p[-0.0653644255919475, 0.34, 0.318437310710337, 0.0, 3.14159265358979, 0.0], r = 0.05)
    movel(p[-0.0704859007892633, 0.34, 0.324583080947116, 0.0, 3.14159265358979, 0.0], r = 0.05)
    movel(p[-0.0756073759865792, 0.34, 0.330728851183895, 0.0, 3.14159265358979, 0.0], r = 0.05)
    movel(p[-0.080728851183895, 0.34, 0.336874621420674, 0.0, 3.14159265358979, 0.0], r = 0.05)
    movel(p[-0.0858503263812108, 0.34, 0.343020391657453, 0.0, 3.14159265358979, 0.0], r = 0.05)
    movel(p[-0.0909718015785267, 0.34, 0.349166161894232, 0.0, 3.14159265358979, 0.0], r = 0.05)
    movel(p[-0.0960932767758425, 0.34, 0.355311932131011, 0.0, 3.14159265358979, 0.0], r = 0.05)
    movel(p[-0.1, 0.34, 0.352, 0.0, 3.14159265358979, 0.0], r = 0.05)
    movel(p[-0.1, 0.34, 0.344, 0.0, 3.14159265358979, 0.0], r = 0.05)
    movel(p[-0.1, 0.34, 0.336, 0.0, 3.14159265358979, 0.0], r = 0.05)
    movel(p[-0.1, 0.34, 0.328, 0.0, 3.14159265358979, 0.0], r = 0.05)
    movel(p[-0.1, 0.34, 0.32, 0.0, 3.14159265358979, 0.0], r = 0.05)
    movel(p[-0.1, 0.34, 0.312, 0.0, 3.14159265358979, 0.0], r = 0.05)
    movel(p[-0.1, 0.34, 0.304, 0.0, 3.14159265358979, 0.0], r = 0.05)
    movel(p[-0.108, 0.34, 0.3, 0.0, 3.14159265358979, 0.0], r = 0.05)
    movel(p[-0.116, 0.34, 0.3, 0.0, 3.14159265358979, 0.0], r = 0.05)
    movel(p[-0.124, 0.34, 0.3, 0.0, 3.14159265358979, 0.0], r = 0.05)
    movel(p[-0.132, 0.34, 0.3, 0.0, 3.14159265358979, 0.0], r = 0.05)
    movel(p[-0.14, 0.34, 0.3, 0.0, 3.14159265358979, 0.0], r = 0.05)
    movel(p[-0.148, 0.34, 0.3, 0.0, 3.14159265358979, 0.0], r = 0.05)
    movel(p[-0.156, 0.34, 0.3, 0.0, 3.14159265358979, 0.0], r = 0.05)
    movel(p[-0.164, 0.34, 0.3, 0.0, 3.14159265358979, 0.0], r = 0.05)
    movel(p[-0.172, 0.34, 0.3, 0.0, 3.14159265358979, 0.0], r = 0.05)
    movel(p[-0.18, 0.34, 0.3, 0.0, 3.14159265358979, 0.0], r = 0.05)
    movel(p[-0.188, 0.34, 0.3, 0.0, 3.14159265358979, 0.0], r = 0.05)
    movel(p[-0.196, 0.34, 0.3, 0.0, 3.14159265358979, 0.0], r = 0.05)
    movel(p[-0.2, 0.34, 0.308, 0.0, 3.14159265358979, 0.0], r = 0.05)
    movel(p[-0.2, 0.34, 0.316, 0.0, 3.14159265358979, 0.0], r = 0.05)
    movel(p[-0.2, 0.34, 0.324, 0.0, 3.14159265358979, 0.0], r = 0.05)
    movel(p[-0.2, 0.34, 0.332, 0.0, 3.14159265358979, 0.0], r = 0.05)
    movel(p[-0.2, 0.34, 0.34, 0.0, 3.14159265358979, 0.0], r = 0.05)
    movel(p[-0.2, 0.34, 0.348, 0.0, 3.14159265358979, 0.0], r = 0.05)
    movel(p[-0.2, 0.34, 0.356, 0.0, 3.14159265358979, 0.0], r = 0.05)
    movel(p[-0.205121475197316, 0.34, 0.353854229763221, 0.0, 3.14159265358979, 0.0], r = 0.05)
    movel(p[-0.210242950394632, 0.34, 0.347708459526442, 0.0, 3.14159265358979, 0.0], r = 0.05)
    movel(p[-0.215364425591948, 0.34, 0.341562689289663, 0.0, 3.14159265358979, 0.0], r = 0.05)
    movel(p[-0.220485900789263, 0.34, 0.335416919052884, 0.0, 3.14159265358979, 0.0], r = 0.05)
    movel(p[-0.225607375986579, 0.34, 0.329271148816105, 0.0, 3.14159265358979, 0.0], r = 0.05)
    movel(p[-0.230728851183895, 0.34, 0.323125378579326, 0.0, 3.14159265358979, 0.0], r = 0.05)
    movel(p[-0.235850326381211, 0.34, 0.316979608342547, 0.0, 3.14159265358979, 0.0], r = 0.05)
    movel(p[-0.240971801578527, 0.34, 0.310833838105768, 0.0, 3.14159265358979, 0.0], r = 0.05)
    movel(p[-0.246093276775843, 0.34, 0.304688067868989, 0.0, 3.14159265358979, 0.0], r = 0.05)
    movel(p[-0.25, 0.34, 0.308, 0.0, 3.14159265358979, 0.0], r = 0.05)
    movel(p[-0.25, 0.34, 0.316, 0.0, 3.14159265358979, 0.0], r = 0.05)
    movel(p[-0.25, 0.34, 0.324, 0.0, 3.14159265358979, 0.0], r = 0.05)
    movel(p[-0.25, 0.34, 0.332, 0.0, 3.14159265358979, 0.0], r = 0.05)
    movel(p[-0.25, 0.34, 0.34, 0.0, 3.14159265358979, 0.0], r = 0.05)
    movel(p[-0.25, 0.34, 0.348, 0.0, 3.14159265358979, 0.0], r = 0.05)
    movel(p[-0.25, 0.34, 0.356, 0.0, 3.14159265358979, 0.0], r = 0.05)
    movel(p[-0.2568599434057, 0.34, 0.35588403395658, 0.0, 3.14159265358979, 0.0], r = 0.05)
    movel(p[-0.263719886811401, 0.34, 0.35176806791316, 0.0, 3.14159265358979, 0.0], r = 0.05)
    movel(p[-0.270579830217101, 0.34, 0.347652101869739, 0.0, 3.14159265358979, 0.0], r = 0.05)
    movel(p[-0.277439773622801, 0.34, 0.343536135826319, 0.0, 3.14159265358979, 0.0], r = 0.05)
    movel(p[-0.284299717028502, 0.34, 0.339420169782899, 0.0, 3.14159265358979, 0.0], r = 0.05)
    movel(p[-0.291159660434202, 0.34, 0.335304203739479, 0.0, 3.14159265358979, 0.0], r = 0.05)
    movel(p[-0.298019603839902, 0.34, 0.331188237696058, 0.0, 3.14159265358979, 0.0], r = 0.05)
    movel(p[-0.3068599434057, 0.34, 0.33411596604342, 0.0, 3.14159265358979, 0.0], r = 0.05)
    movel(p[-0.313719886811401, 0.34, 0.33823193208684, 0.0, 3.14159265358979, 0.0], r = 0.05)
    movel(p[-0.320579830217101, 0.34, 0.342347898130261, 0.0, 3.14159265358979, 0.0], r = 0.05)
    movel(p[-0.327439773622801, 0.34, 0.346463864173681, 0.0, 3.14159265358979, 0.0], r = 0.05)
    movel(p[-0.334299717028502, 0.34, 0.350579830217101, 0.0, 3.14159265358979, 0.0], r = 0.05)
    movel(p[-0.341159660434202, 0.34, 0.354695796260521, 0.0, 3.14159265358979, 0.0], r = 0.05)
    movel(p[-0.348019603839902, 0.34, 0.358811762303941, 0.0, 3.14159265358979, 0.0], r = 0.05)
    movel(p[-0.35, 0.34, 0.352, 0.0, 3.14159265358979, 0.0], r = 0.05)
    movel(p[-0.35, 0.34, 0.344, 0.0, 3.14159265358979, 0.0], r = 0.05)
    movel(p[-0.35, 0.34, 0.336, 0.0, 3.14159265358979, 0.0], r = 0.05)
    movel(p[-0.35, 0.34, 0.328, 0.0, 3.14159265358979, 0.0], r = 0.05)
    movel(p[-0.35, 0.34, 0.32, 0.0, 3.14159265358979, 0.0], r = 0.05)
    movel(p[-0.35, 0.34, 0.312, 0.0, 3.14159265358979, 0.0], r = 0.05)
    movel(p[-0.35, 0.34, 0.304, 0.0, 3.14159265358979, 0.0], r = 0.05)
    movel(p[-0.35, 0.34, 0.308, 0.0, 3.14159265358979, 0.0], r = 0.05)
    movel(p[-0.35, 0.34, 0.316, 0.0, 3.14159265358979, 0.0], r = 0.05)
    movel(p[-0.35, 0.34, 0.324, 0.0, 3.14159265358979, 0.0], r = 0.05)
    movel(p[-0.35, 0.34, 0.332, 0.0, 3.14159265358979, 0.0], r = 0.05)
    movel(p[-0.35, 0.34, 0.34, 0.0, 3.14159265358979, 0.0], r = 0.05)
    movel(p[-0.35, 0.34, 0.348, 0.0, 3.14159265358979, 0.0], r = 0.05)
    movel(p[-0.35, 0.34, 0.356, 0.0, 3.14159265358979, 0.0], r = 0.05)
    movel(p[-0.344878524802684, 0.34, 0.366145770236779, 0.0, 3.14159265358979, 0.0], r = 0.05)
    movel(p[-0.339757049605368, 0.34, 0.372291540473558, 0.0, 3.14159265358979, 0.0], r = 0.05)
    movel(p[-0.334635574408052, 0.34, 0.378437310710337, 0.0, 3.14159265358979, 0.0], r = 0.05)
    movel(p[-0.329514099210737, 0.34, 0.384583080947116, 0.0, 3.14159265358979, 0.0], r = 0.05)
    movel(p[-0.324392624013421, 0.34, 0.390728851183895, 0.0, 3.14159265358979, 0.0], r = 0.05)
    movel(p[-0.319271148816105, 0.34, 0.396874621420674, 0.0, 3.14159265358979, 0.0], r = 0.05)
    movel(p[-0.314149673618789, 0.34, 0.403020391657453, 0.0, 3.14159265358979, 0.0], r = 0.05)
    movel(p[-0.309028198421473, 0.34, 0.409166161894232, 0.0, 3.14159265358979, 0.0], r = 0.05)
    movel(p[-0.303906723224157, 0.34, 0.415311932131011, 0.0, 3.14159265358979, 0.0], r = 0.05)
    counter = counter + 1
  end
end
