def initialization():
    global program_counter = 1
    movej(get_inverse_kin(p[-0.5, -0.3, 0.4, 0.0, 3.14159265358979, 0.0], qnear = [-0.604, -1.204, -2.091, -1.417, 1.569, 0]))
end
def main():
    counter = 0
    while (counter < program_counter):
        movel(p[-0.476190476190476, -0.3, 0.39047619047619, 0.0, 3.14159265358979, 0.0], r = 0.05)
        movel(p[-0.452380952380952, -0.3, 0.380952380952381, 0.0, 3.14159265358979, 0.0], r = 0.05)
        movel(p[-0.428571428571429, -0.3, 0.371428571428571, 0.0, 3.14159265358979, 0.0], r = 0.05)
        movel(p[-0.404761904761905, -0.3, 0.361904761904762, 0.0, 3.14159265358979, 0.0], r = 0.05)
        movel(p[-0.380952380952381, -0.3, 0.352380952380952, 0.0, 3.14159265358979, 0.0], r = 0.05)
        movel(p[-0.357142857142857, -0.3, 0.342857142857143, 0.0, 3.14159265358979, 0.0], r = 0.05)
        movel(p[-0.333333333333333, -0.3, 0.333333333333333, 0.0, 3.14159265358979, 0.0], r = 0.05)
        movel(p[-0.30952380952381, -0.3, 0.323809523809524, 0.0, 3.14159265358979, 0.0], r = 0.05)
        movel(p[-0.285714285714286, -0.3, 0.314285714285714, 0.0, 3.14159265358979, 0.0], r = 0.05)
        movel(p[-0.261904761904762, -0.3, 0.304761904761905, 0.0, 3.14159265358979, 0.0], r = 0.05)
        movel(p[-0.238095238095238, -0.3, 0.295238095238095, 0.0, 3.14159265358979, 0.0], r = 0.05)
        movel(p[-0.214285714285714, -0.3, 0.285714285714286, 0.0, 3.14159265358979, 0.0], r = 0.05)
        movel(p[-0.190476190476191, -0.3, 0.276190476190476, 0.0, 3.14159265358979, 0.0], r = 0.05)
        movel(p[-0.166666666666667, -0.3, 0.266666666666667, 0.0, 3.14159265358979, 0.0], r = 0.05)
        movel(p[-0.142857142857143, -0.3, 0.257142857142857, 0.0, 3.14159265358979, 0.0], r = 0.05)
        movel(p[-0.119047619047619, -0.3, 0.247619047619048, 0.0, 3.14159265358979, 0.0], r = 0.05)
        movel(p[-0.0952380952380952, -0.3, 0.238095238095238, 0.0, 3.14159265358979, 0.0], r = 0.05)
        movel(p[-0.0714285714285714, -0.3, 0.228571428571429, 0.0, 3.14159265358979, 0.0], r = 0.05)
        movel(p[-0.0476190476190476, -0.3, 0.219047619047619, 0.0, 3.14159265358979, 0.0], r = 0.05)
        movel(p[-0.0238095238095237, -0.3, 0.20952380952381, 0.0, 3.14159265358979, 0.0], r = 0.05)
        movel(p[0.0, -0.3, 0.2, 0.0, 3.14159265358979, 0.0], r = 0.05)
        movel(p[0.0238095238095238, -0.3, 0.20952380952381, 0.0, 3.14159265358979, 0.0], r = 0.05)
        movel(p[0.0476190476190477, -0.3, 0.219047619047619, 0.0, 3.14159265358979, 0.0], r = 0.05)
        movel(p[0.0714285714285714, -0.3, 0.228571428571429, 0.0, 3.14159265358979, 0.0], r = 0.05)
        movel(p[0.0952380952380952, -0.3, 0.238095238095238, 0.0, 3.14159265358979, 0.0], r = 0.05)
        movel(p[0.119047619047619, -0.3, 0.247619047619048, 0.0, 3.14159265358979, 0.0], r = 0.05)
        movel(p[0.142857142857143, -0.3, 0.257142857142857, 0.0, 3.14159265358979, 0.0], r = 0.05)
        movel(p[0.166666666666667, -0.3, 0.266666666666667, 0.0, 3.14159265358979, 0.0], r = 0.05)
        movel(p[0.190476190476191, -0.3, 0.276190476190476, 0.0, 3.14159265358979, 0.0], r = 0.05)
        movel(p[0.214285714285714, -0.3, 0.285714285714286, 0.0, 3.14159265358979, 0.0], r = 0.05)
        movel(p[0.238095238095238, -0.3, 0.295238095238095, 0.0, 3.14159265358979, 0.0], r = 0.05)
        movel(p[0.261904761904762, -0.3, 0.304761904761905, 0.0, 3.14159265358979, 0.0], r = 0.05)
        movel(p[0.285714285714286, -0.3, 0.314285714285714, 0.0, 3.14159265358979, 0.0], r = 0.05)
        movel(p[0.309523809523809, -0.3, 0.323809523809524, 0.0, 3.14159265358979, 0.0], r = 0.05)
        movel(p[0.333333333333333, -0.3, 0.333333333333333, 0.0, 3.14159265358979, 0.0], r = 0.05)
        movel(p[0.357142857142857, -0.3, 0.342857142857143, 0.0, 3.14159265358979, 0.0], r = 0.05)
        movel(p[0.380952380952381, -0.3, 0.352380952380952, 0.0, 3.14159265358979, 0.0], r = 0.05)
        movel(p[0.404761904761905, -0.3, 0.361904761904762, 0.0, 3.14159265358979, 0.0], r = 0.05)
        movel(p[0.428571428571429, -0.3, 0.371428571428571, 0.0, 3.14159265358979, 0.0], r = 0.05)
        movel(p[0.452380952380952, -0.3, 0.380952380952381, 0.0, 3.14159265358979, 0.0], r = 0.05)
        movel(p[0.476190476190476, -0.3, 0.39047619047619, 0.0, 3.14159265358979, 0.0], r = 0.05)
        movel(p[0.5, -0.3, 0.4, 0.0, 3.14159265358979, 0.0], r = 0.05)
        movel(p[0.452380952380952, -0.3, 0.4, 0.0, 3.14159265358979, 0.0], r = 0.05)
        movel(p[0.404761904761905, -0.3, 0.4, 0.0, 3.14159265358979, 0.0], r = 0.05)
        movel(p[0.357142857142857, -0.3, 0.4, 0.0, 3.14159265358979, 0.0], r = 0.05)
        movel(p[0.30952380952381, -0.3, 0.4, 0.0, 3.14159265358979, 0.0], r = 0.05)
        movel(p[0.261904761904762, -0.3, 0.4, 0.0, 3.14159265358979, 0.0], r = 0.05)
        movel(p[0.214285714285714, -0.3, 0.4, 0.0, 3.14159265358979, 0.0], r = 0.05)
        movel(p[0.166666666666667, -0.3, 0.4, 0.0, 3.14159265358979, 0.0], r = 0.05)
        movel(p[0.119047619047619, -0.3, 0.4, 0.0, 3.14159265358979, 0.0], r = 0.05)
        movel(p[0.0714285714285714, -0.3, 0.4, 0.0, 3.14159265358979, 0.0], r = 0.05)
        movel(p[0.0238095238095237, -0.3, 0.4, 0.0, 3.14159265358979, 0.0], r = 0.05)
        movel(p[-0.0238095238095237, -0.3, 0.4, 0.0, 3.14159265358979, 0.0], r = 0.05)
        movel(p[-0.0714285714285714, -0.3, 0.4, 0.0, 3.14159265358979, 0.0], r = 0.05)
        movel(p[-0.119047619047619, -0.3, 0.4, 0.0, 3.14159265358979, 0.0], r = 0.05)
        movel(p[-0.166666666666667, -0.3, 0.4, 0.0, 3.14159265358979, 0.0], r = 0.05)
        movel(p[-0.214285714285714, -0.3, 0.4, 0.0, 3.14159265358979, 0.0], r = 0.05)
        movel(p[-0.261904761904762, -0.3, 0.4, 0.0, 3.14159265358979, 0.0], r = 0.05)
        movel(p[-0.30952380952381, -0.3, 0.4, 0.0, 3.14159265358979, 0.0], r = 0.05)
        movel(p[-0.357142857142857, -0.3, 0.4, 0.0, 3.14159265358979, 0.0], r = 0.05)
        movel(p[-0.404761904761905, -0.3, 0.4, 0.0, 3.14159265358979, 0.0], r = 0.05)
        movel(p[-0.452380952380953, -0.3, 0.4, 0.0, 3.14159265358979, 0.0], r = 0.05)
        movel(p[-0.5, -0.3, 0.4, 0.0, 3.14159265358979, 0.0], r = 0.05)
        counter = counter + 1
    end
end
